X: 1455
T: The Hornless Cow
M:C|
L:1/8
B:O'Neill's 1455
Z:"Transcribed by Bob Safranek, rjs@gsp.org"
K:D
FAAF GFED | FAAc  dABG   | FAAF GBdB | Adfe dcBA  |
FAAF GFED | FAAc  dABG   | FAAF GBdB | AFDF E2 D2 ||
afdf gfge | afdf (eB) B2 | afdf gfge | afdf e2 d2 |
afdf gfge | afdf (eB) B2 | defg afbf | afdf e2 d2 |]


